48x48/apps/org.kde.plasma.cryptocurrencyprice.svg

<svg xmlns="http://www.w3.org/2000/svg" width="48" height="48" version="1"><rect style="fill:#de3529" width="40" height="40" x="4" y="4" rx="20" ry="20"/><path style="opacity:.1;fill:#f4f4f7" d="M24 4C12.92 4 4 12.92 4 24c0 .168-.004.333 0 .5C4.264 13.654 13.088 5 24 5s19.736 8.654 20 19.5c.004-.167 0-.332 0-.5 0-11.08-8.92-20-20-20z"/><path style="opacity:.2" d="M4.012 24.5c-.004.167-.012.332-.012.5 0 11.08 8.92 20 20 20s20-8.92 20-20c0-.168-.008-.333-.012-.5A19.951 19.951 0 0 1 24 44 19.951 19.951 0 0 1 4.012 24.5z"/><path style="opacity:.2" d="M24 11a14 14 0 0 0-14 14 14 14 0 0 0 14 14 14 14 0 0 0 13.072-9H32.65A10 10 0 0 1 24 35a10 10 0 0 1-10-10 10 10 0 0 1 10-10 10 10 0 0 1 8.645 5h4.414A14 14 0 0 0 24 11zm0 9a5 5 0 0 0-5 5 5 5 0 0 0 5 5 5 5 0 0 0 4.58-3H34l6-4H28.576A5 5 0 0 0 24 20z"/><path style="fill:#f4f4f7" d="M24 10a14 14 0 0 0-14 14 14 14 0 0 0 14 14 14 14 0 0 0 13.072-9H32.65A10 10 0 0 1 24 34a10 10 0 0 1-10-10 10 10 0 0 1 10-10 10 10 0 0 1 8.645 5h4.414A14 14 0 0 0 24 10zm0 9a5 5 0 0 0-5 5 5 5 0 0 0 5 5 5 5 0 0 0 4.58-3H34l6-4H28.576A5 5 0 0 0 24 19z"/></svg>

<svg xmlns="http://www.w3.org/2000/svg" width="48" height="48" version="1">
 <rect style="fill:#de3529" width="40" height="40" x="4" y="4" rx="20" ry="20"/>
 <path style="opacity:0.1;fill:#f4f4f7" d="M 24,4 C 12.92,4 4,12.92 4,24 4,24.168 3.996,24.333 4,24.5 4.2644,13.654 13.088,5 24,5 34.912,5 43.736,13.654 44,24.5 44.004,24.333 44,24.168 44,24 44,12.92 35.08,4 24,4 Z"/>
 <path style="opacity:0.2" d="M 4.0117,24.5 C 4.0076,24.667 4,24.832 4,25 4,36.08 12.92,45 24,45 35.08,45 44,36.08 44,25 44,24.832 43.992,24.667 43.988,24.5 43.724,35.346 34.912,44 24,44 13.088,44 4.276,35.346 4.012,24.5 Z"/>
 <path style="opacity:0.2" d="M 24,11 A 14,14 0 0 0 10,25 14,14 0 0 0 24,39 14,14 0 0 0 37.072266,30 H 32.650391 A 10,10 0 0 1 24,35 10,10 0 0 1 14,25 10,10 0 0 1 24,15 a 10,10 0 0 1 8.644531,5 h 4.414063 A 14,14 0 0 0 24,11 Z m 0,9 a 5,5 0 0 0 -5,5 5,5 0 0 0 5,5 5,5 0 0 0 4.580078,-3 H 34 l 6,-4 H 28.576172 A 5,5 0 0 0 24,20 Z"/>
 <path style="fill:#f4f4f7" d="M 24,10 A 14,14 0 0 0 10,24 14,14 0 0 0 24,38 14,14 0 0 0 37.072266,29 H 32.650391 A 10,10 0 0 1 24,34 10,10 0 0 1 14,24 10,10 0 0 1 24,14 a 10,10 0 0 1 8.644531,5 h 4.414063 A 14,14 0 0 0 24,10 Z m 0,9 a 5,5 0 0 0 -5,5 5,5 0 0 0 5,5 5,5 0 0 0 4.580078,-3 H 34 l 6,-4 H 28.576172 A 5,5 0 0 0 24,19 Z"/>
</svg>
